dhis-2/dhis-support/dhis-support-system/src/main/resources/SVGs/symptom_positive.svg

<?xml version="1.0" encoding="UTF-8" standalone="no"?>
<!-- Created with Inkscape (http://www.inkscape.org/) -->
<svg id="svg8" xmlns:rdf="http://www.w3.org/1999/02/22-rdf-syntax-ns#" xmlns="http://www.w3.org/2000/svg" xmlns:osb="http://www.openswatchbook.org/uri/2009/osb" height="48" width="48" version="1.1" xmlns:cc="http://creativecommons.org/ns#" viewBox="0 0 12.7 12.7" xmlns:dc="http://purl.org/dc/elements/1.1/">
 <title id="title4753">UIO-icon</title>
 <metadata id="metadata5">
  <rdf:RDF>
   <cc:Work rdf:about="">
    <dc:format>image/svg+xml</dc:format>
    <dc:type rdf:resource="http://purl.org/dc/dcmitype/StillImage"/>
    <dc:title>UIO-icon</dc:title>
    <dc:creator>
     <cc:Agent>
      <dc:title>Joaquín Urbano</dc:title>
     </cc:Agent>
    </dc:creator>
    <dc:rights>
     <cc:Agent>
      <dc:title>GPL</dc:title>
     </cc:Agent>
    </dc:rights>
   </cc:Work>
  </rdf:RDF>
 </metadata>
 <g id="layer1" transform="translate(0,-284.3)" fill="#333">
  <path id="path1860" d="m23.758 4.0039c-1.8323 0.07488-3.4991 1.3092-4.0527 3.1016-0.23553 0.76229-0.23475 1.9018 0.001953 2.668 0.45018 1.4575 1.7691 2.6665 3.2598 2.9902 0.71828 0.15694 1.1159 0.15536 1.8555 0 2.0639-0.43414 3.543-2.242 3.543-4.3301 0-2.2012-1.6278-4.0732-3.8145-4.3887-0.266-0.0383-0.531-0.0517-0.793-0.041zm3.383 0.2559a5.3033 5.3033 0 0 1 0.709 0.6386 19.486 19.486 0 0 1 15.636 19.102 19.486 19.486 0 0 1 -7.9688 15.689l0.30469 0.41406a20 20 0 0 0 8.178 -16.103 20 20 0 0 0 -16.859 -19.74zm-6.4258 0.035156a20 20 0 0 0 -16.715 19.705 20 20 0 0 0 8.107 16.053l0.30469-0.41406a19.486 19.486 0 0 1 -7.8983 -15.639 19.486 19.486 0 0 1 15.5 -19.051 5.3033 5.3033 0 0 1 0.701 -0.6541zm4.2969 0.28906c1.1192 3.78e-7 2.0254 0.90617 2.0254 2.0254s-0.90617 2.0273-2.0254 2.0273-2.0273-0.90812-2.0273-2.0273 0.90812-2.0254 2.0273-2.0254zm-1.082 9.0859c-1.9483 0.001778-3.8999 0.053167-4.2656 0.14844-1.1124 0.28981-2.0788 1.0494-2.8945 2.2754-0.26548 0.39896-1.2413 2.2721-2.1699 4.1641-2.9948 6.1012-2.8971 5.86-2.6562 6.666 0.19956 0.66789 1.0246 1.2773 1.7285 1.2773 0.1091 0 0.3534-0.044632 0.54297-0.10156 0.72388-0.21687 0.87995-0.4595 3.0918-4.752 0.70638-1.3708 0.93737-1.794 1.332-2.543-0.71779-0.33061-1.1769-1.0496-1.1777-1.8398 0-1.1192 0.90617-2.0254 2.0254-2.0254s2.0273 0.90617 2.0273 2.0254-0.90812 2.0273-2.0273 2.0273h-0.003906c0.023806 1.7438 0.042924 4.8184 0.044922 9.2227h0.019531c-0.002301 0.003242-0.003454 0.006515-0.005859 0.009766l-0.013672-0.009766c-0.16231 0.22929-0.12316 0.18346-0.28906 0.41797-5.9272 8.3726-6.6933 9.48-6.7617 9.7852-0.13429 0.5995 0.039024 1.2529 0.46484 1.7539h0.001953c0.42282 0.49786 1.2878 0.7637 1.9414 0.59375 0.74269-0.19291 0.59805-0.021562 4.3711-5.3496l1.2988-1.8359c0.27865-0.39332 0.44119-0.61825 0.7793-1.0957l0.75781-1.0703c-0.97447-0.16437-1.6883-1.0079-1.6895-1.9961 0-1.1192 0.90812-2.0254 2.0273-2.0254s2.0254 0.90617 2.0254 2.0254c-0.00081165 0.02725-0.002023 0.054815-0.003906 0.082031l0.70117 0.99219 1.8613 2.627 1.625 2.2969c3.773 5.328 3.6304 5.1567 4.373 5.3496 0.6536 0.16995 1.5166-0.095882 1.9395-0.59375h0.001953c0.42582-0.50099 0.60108-1.1544 0.4668-1.7539-0.068416-0.30515-0.83449-1.4125-6.7617-9.7852-0.1659-0.2345-0.1287-0.18868-0.29102-0.41797l-0.005859 0.003906c-0.00090997-0.001465-0.001012-0.002439-0.001953-0.003906h0.007813l0.009766-2.9824c-0.26888 0.83823-1.0474 1.4077-1.9277 1.4082-1.1192 0-2.0273-0.90812-2.0273-2.0273s0.90812-2.0254 2.0273-2.0254c0.88809 0.00066445 1.6713 0.57926 1.9336 1.4277l0.025391-6.8477 2.0879 4.0566c1.1483 2.2319 2.1918 4.1722 2.3184 4.3105 0.20604 0.23826 0.35532 0.5075 0.58008 0.59961 1.3785 0.56539 2.461-0.47888 2.5625-1.377 0.13005-1.1504-1.2116-3.4633-1.8184-4.6758 0.00000104-0.19367-2.5681-5.2691-2.9883-5.9062-0.8537-1.2944-1.8118-2.0588-2.9707-2.3672-0.35561-0.09428-2.3017-0.14047-4.25-0.13867zm1.4082 4.5762c1.1192 0 2.0273 0.90812 2.0273 2.0273s-0.90812 2.0254-2.0273 2.0254-2.0273-0.90617-2.0273-2.0254 0.90812-2.0273 2.0273-2.0273zm-8.869 23.725-0.301 0.408a20 20 0 0 0 7.832 1.621 20 20 0 0 0 7.764 -1.568l-0.32422-0.4375a19.486 19.486 0 0 1 -7.44 1.492 19.486 19.486 0 0 1 -7.5312 -1.5156z" transform="matrix(.26458 0 0 .26458 0 284.3)" stroke-width=".13571"/>
 </g>
</svg>

<svg width="48" height="48" viewBox="0 0 48 48" fill="none" xmlns="http://www.w3.org/2000/svg">
<path d="M23.7578 4.0038C21.9255 4.07868 20.2587 5.31298 19.7051 7.10536C19.4696 7.86764 19.4704 9.00714 19.7071 9.77333C20.1573 11.2308 21.4762 12.4398 22.9669 12.7635C23.6851 12.9204 24.0827 12.9188 24.8223 12.7635C26.8862 12.3294 28.3653 10.5215 28.3653 8.43344C28.3653 6.23227 26.7375 4.36029 24.5508 4.0448C24.2848 4.0065 24.0198 3.9931 23.7578 4.0038ZM27.1408 4.2597C27.3958 4.45082 27.6331 4.66455 27.8497 4.89829C32.2607 5.78732 36.2281 8.17554 39.0782 11.6575C41.9283 15.1394 43.4856 19.5004 43.4855 24C43.481 27.0569 42.7573 30.0698 41.373 32.7952C39.9887 35.5206 37.9826 37.8821 35.5168 39.6888L35.8215 40.1029C38.3522 38.2484 40.411 35.8245 41.8316 33.0272C43.2523 30.2298 43.9949 27.1375 43.9994 24.0001C43.9966 19.2423 42.2977 14.6413 39.2078 11.0234C36.1179 7.40544 31.8394 5.00757 27.1406 4.26036L27.1408 4.2597ZM20.715 4.29485C16.0485 5.07187 11.8085 7.47793 8.74831 11.0856C5.68809 14.6932 4.00577 19.2689 4.00024 23.9996C4.00441 27.1225 4.73984 30.201 6.14761 32.9886C7.55538 35.7762 9.59638 38.1954 12.1071 40.0524L12.4118 39.6383C9.96585 37.8292 7.97749 35.4724 6.60597 32.7567C5.23445 30.041 4.51787 27.0419 4.51363 23.9995C4.5189 19.5277 6.06214 15.1937 8.88438 11.7249C11.7066 8.25606 15.6361 5.86353 20.0134 4.94878C20.2269 4.71003 20.4615 4.49111 20.7144 4.29469L20.715 4.29485ZM25.0119 4.58391C26.1311 4.58391 27.0373 5.49007 27.0373 6.60928C27.0373 7.7285 26.1311 8.63656 25.0119 8.63656C23.8927 8.63656 22.9846 7.72845 22.9846 6.60928C22.9846 5.49012 23.8927 4.58391 25.0119 4.58391ZM23.9299 13.6697C21.9816 13.6715 20.03 13.7229 19.6643 13.8181C18.552 14.1079 17.5856 14.8675 16.7699 16.0935C16.5044 16.4925 15.5286 18.3656 14.6 20.2576C11.6052 26.3587 11.7029 26.1175 11.9438 26.9235C12.1434 27.5913 12.9684 28.2008 13.6723 28.2008C13.7814 28.2008 14.0257 28.1561 14.2153 28.0992C14.9392 27.8823 15.0952 27.6397 17.307 23.3472C18.0134 21.9765 18.2444 21.5533 18.639 20.8043C17.9212 20.4737 17.4621 19.7547 17.4613 18.9645C17.4613 17.8453 18.3675 16.9391 19.4867 16.9391C20.6059 16.9391 21.514 17.8453 21.514 18.9645C21.514 20.0837 20.6059 20.9918 19.4867 20.9918H19.4828C19.5066 22.7356 19.5257 25.8101 19.5277 30.2144H19.5473C19.545 30.2176 19.5438 30.2209 19.5414 30.2241L19.5277 30.2144C19.3654 30.4437 19.4046 30.3978 19.2387 30.6323C13.3116 39.0048 12.5455 40.1122 12.4771 40.4174C12.3428 41.0169 12.5161 41.6703 12.9419 42.1713H12.9439C13.3667 42.6691 14.2316 42.935 14.8852 42.765C15.6279 42.5721 15.4833 42.7435 19.2563 37.4155L20.5551 35.5796C20.8337 35.1863 20.9962 34.9614 21.3343 34.4839L22.0921 33.4136C21.1177 33.2493 20.4039 32.4058 20.4027 31.4176C20.4027 30.2984 21.3108 29.3922 22.4299 29.3922C23.5491 29.3922 24.4553 30.2984 24.4553 31.4176C24.4545 31.4448 24.4533 31.4724 24.4514 31.4996L25.1526 32.4918L27.0138 35.1187L28.6388 37.4156C32.4118 42.7435 32.2692 42.5722 33.0118 42.7651C33.6654 42.9351 34.5284 42.6693 34.9512 42.1714H34.9532C35.379 41.6704 35.5543 41.017 35.42 40.4175C35.3516 40.1124 34.5855 39.005 28.6584 30.6325C28.4925 30.398 28.5297 30.4438 28.3674 30.2145L28.3615 30.2184C28.3606 30.2169 28.3605 30.216 28.3596 30.2145H28.3674L28.3771 27.2321C28.1083 28.0703 27.3297 28.6398 26.4495 28.6403C25.3303 28.6403 24.4222 27.7322 24.4222 26.613C24.4222 25.4939 25.3303 24.5877 26.4495 24.5877C27.3375 24.5883 28.1207 25.1669 28.383 26.0153L28.4084 19.1677L30.4963 23.2243C31.6446 25.4561 32.6881 27.3964 32.8147 27.5347C33.0207 27.773 33.17 28.0422 33.3947 28.1343C34.7732 28.6997 35.8557 27.6554 35.9572 26.7573C36.0873 25.607 34.7456 23.2941 34.1388 22.0816C34.1388 21.8879 31.5708 16.8126 31.1506 16.1755C30.2969 14.8811 29.3388 14.1167 28.1799 13.8083C27.8243 13.714 25.8782 13.6678 23.93 13.6696L23.9299 13.6697ZM25.3381 18.2458C26.4573 18.2458 27.3654 19.1539 27.3654 20.2731C27.3654 21.3923 26.4572 22.2985 25.3381 22.2985C24.2189 22.2985 23.3108 21.3923 23.3108 20.2731C23.3108 19.1539 24.2189 18.2458 25.3381 18.2458ZM16.4692 41.9705L16.1682 42.3785C18.6431 43.4407 21.3069 43.992 24.0001 43.9995C26.6667 43.9997 29.3064 43.4666 31.764 42.4315L31.4398 41.994C29.0815 42.9741 26.5536 43.481 23.9999 43.486C21.4138 43.4856 18.8537 42.9704 16.4688 41.9704L16.4692 41.9705Z" fill="#333333"/>
</svg>
